layout/icons/continuous.svg

<?xml version="1.0" encoding="UTF-8" standalone="no"?>
<!-- Created with Inkscape (http://www.inkscape.org/) -->

<svg
   xmlns:dc="http://purl.org/dc/elements/1.1/"
   xmlns:cc="http://creativecommons.org/ns#"
   xmlns:rdf="http://www.w3.org/1999/02/22-rdf-syntax-ns#"
   xmlns:svg="http://www.w3.org/2000/svg"
   xmlns="http://www.w3.org/2000/svg"
   xmlns:sodipodi="http://sodipodi.sourceforge.net/DTD/sodipodi-0.dtd"
   xmlns:inkscape="http://www.inkscape.org/namespaces/inkscape"
   width="16"
   height="16"
   viewBox="0 0 16 16"
   id="svg2"
   version="1.1"
   inkscape:version="0.91 r13725"
   sodipodi:docname="continuous.svg">
  <defs
     id="defs4" />
  <sodipodi:namedview
     id="base"
     pagecolor="#ffffff"
     bordercolor="#666666"
     borderopacity="1.0"
     inkscape:pageopacity="0.0"
     inkscape:pageshadow="2"
     inkscape:zoom="33.625"
     inkscape:cx="0.17843863"
     inkscape:cy="8"
     inkscape:document-units="px"
     inkscape:current-layer="layer1"
     showgrid="false"
     inkscape:window-width="1366"
     inkscape:window-height="705"
     inkscape:window-x="-8"
     inkscape:window-y="-8"
     inkscape:window-maximized="1"
     units="px" />
  <metadata
     id="metadata7">
    <rdf:RDF>
      <cc:Work
         rdf:about="">
        <dc:format>image/svg+xml</dc:format>
        <dc:type
           rdf:resource="http://purl.org/dc/dcmitype/StillImage" />
        <dc:title></dc:title>
      </cc:Work>
    </rdf:RDF>
  </metadata>
  <g
     inkscape:label="Camada 1"
     inkscape:groupmode="layer"
     id="layer1"
     transform="translate(0,-1036.3622)">
    <path
       style="fill:#000000;fill-rule:evenodd;stroke:none;stroke-width:1px;stroke-linecap:butt;stroke-linejoin:miter;stroke-opacity:1"
       d="M 4.125 0 L 4.125 11 L 4.625 11 L 4.625 11.5 L 4.125 11.5 L 4.125 16 L 11.875 16 L 11.875 11.5 L 11.375 11.5 L 11.375 11 L 11.875 11 L 11.875 3 L 8.875 3 L 8.875 0 L 4.125 0 z M 9.375 0 L 9.375 2.5 L 11.875 2.5 L 9.375 0 z M 7.375 8.75 L 8.625 8.75 L 8.625 11 L 8.875 11 L 8.875 11.5 L 8.625 11.5 L 8.625 11.982422 L 9.7675781 11.982422 L 8 13.75 L 6.2324219 11.982422 L 7.375 11.982422 L 7.375 11.5 L 7.125 11.5 L 7.125 11 L 7.375 11 L 7.375 8.75 z M 5.125 11 L 5.625 11 L 5.625 11.5 L 5.125 11.5 L 5.125 11 z M 6.125 11 L 6.625 11 L 6.625 11.5 L 6.125 11.5 L 6.125 11 z M 9.375 11 L 9.875 11 L 9.875 11.5 L 9.375 11.5 L 9.375 11 z M 10.375 11 L 10.875 11 L 10.875 11.5 L 10.375 11.5 L 10.375 11 z "
       transform="translate(0,1036.3622)"
       id="rect3334" />
  </g>
</svg>

<?xml version="1.0" encoding="UTF-8" standalone="no"?>
<!-- Created with Inkscape (http://www.inkscape.org/) -->

<svg
   xmlns:dc="http://purl.org/dc/elements/1.1/"
   xmlns:cc="http://creativecommons.org/ns#"
   xmlns:rdf="http://www.w3.org/1999/02/22-rdf-syntax-ns#"
   xmlns:svg="http://www.w3.org/2000/svg"
   xmlns="http://www.w3.org/2000/svg"
   xmlns:sodipodi="http://sodipodi.sourceforge.net/DTD/sodipodi-0.dtd"
   xmlns:inkscape="http://www.inkscape.org/namespaces/inkscape"
   width="16"
   height="16"
   viewBox="0 0 16 16"
   id="svg2"
   version="1.1"
   inkscape:version="0.91 r13725"
   sodipodi:docname="continuous.svg">
  <defs
     id="defs4" />
  <sodipodi:namedview
     id="base"
     pagecolor="#ffffff"
     bordercolor="#666666"
     borderopacity="1.0"
     inkscape:pageopacity="0.0"
     inkscape:pageshadow="2"
     inkscape:zoom="32"
     inkscape:cx="7.1823832"
     inkscape:cy="4.8088857"
     inkscape:document-units="px"
     inkscape:current-layer="layer1"
     showgrid="false"
     inkscape:window-width="1366"
     inkscape:window-height="705"
     inkscape:window-x="-8"
     inkscape:window-y="-8"
     inkscape:window-maximized="1"
     units="px" />
  <metadata
     id="metadata7">
    <rdf:RDF>
      <cc:Work
         rdf:about="">
        <dc:format>image/svg+xml</dc:format>
        <dc:type
           rdf:resource="http://purl.org/dc/dcmitype/StillImage" />
        <dc:title />
      </cc:Work>
    </rdf:RDF>
  </metadata>
  <g
     inkscape:label="Camada 1"
     inkscape:groupmode="layer"
     id="layer1"
     transform="translate(0,-1036.3622)">
    <path
       style="fill:#000000;fill-rule:evenodd;stroke:none;stroke-width:1px;stroke-linecap:butt;stroke-linejoin:miter;stroke-opacity:1"
       d="m 4.125,0 0,11 0.5,0 0,0.5 -0.5,0 0,4.5 7.75,0 0,-4.5 -0.5,0 0,-0.5 0.5,0 0,-8 -3,0 0,-3 z m 5.25,0 0,2.5 2.5,0 z m -2,9.25 1.25,0 0,1.75 0.25,0 0,0.5 -0.25,0 0,0.982211 1.1425781,0 L 8,14.249789 6.2324219,12.482211 l 1.1425781,0 0,-0.982211 -0.25,0 0,-0.5 0.25,0 z m -2.25,1.75 0.5,0 0,0.5 -0.5,0 z m 1,0 0.5,0 0,0.5 -0.5,0 z m 3.25,0 0.5,0 0,0.5 -0.5,0 z m 1,0 0.5,0 0,0.5 -0.5,0 z"
       transform="translate(0,1036.3622)"
       id="rect3334"
       inkscape:connector-curvature="0"
       sodipodi:nodetypes="ccccccccccccccccccccccccccccccccccccccccccccccccccccccc" />
  </g>
</svg>
